X: 20773
T: TOUCH ME NOT
C:
%R: jig
B: Elias Howe "The Musician's Companion" 1843 p.77 #3
S: http://imslp.org/wiki/The_Musician's_Companion_(Howe,_Elias)
Z: 2015 John Chambers <jc:trillian.mit.edu>
M: 6/8
L: 1/8
K: D
% - - - - - - - - - - - - - - - - - - - - - - - - -
A |\
d2a a2g | g2f f2e | d2d ede | faf d2A |\
d2a a2g | g2f f2e | dfa gec | d2d d2 :|
|: A |\
dfa agf | ecA A2A | dfa agf | e3 zz2 |\
efg efg | fga fga | aba gfe | d3- d2 :|
% - - - - - - - - - - - - - - - - - - - - - - - - -

%%sep 1 1 500

